X:1
T:Blooming Caroline of Edinburgh Town
M:4/4
L:1/4
K:C
 G| A c GA/2-B/2| c- C CE/2-G/2| A E D D| D3 C| D E G A| d e c3/2 d/2|\
 ed/2-c/2A/2-G/2 A| c3 C| D E G A| d- e c3/2 d/2| ed/2-c/2A/2-G/2 A|\
 c3B/2-c/2| d d AG/2-A/2| c C DE/2-G/2| A E D D| D3||
